X: 162115
T: Punch Bowl (The)
C: Joe Liddy
Z: BB
S: "The Leitrim Fiddler" (Dublin 1981)
L: 1/8
M: 4/4
R: reel
Q: 1/4 = 180
K: Edor
BA |: GEDE GB B2 | AEGE DEGA | B2 eB EBdB | ABGB A2 BA |
GEDE GB B2 | AEGE DEGA | B2 eB ABGA | BGAF GE E2 :|
Bdef g2 af | gfed BAGA | B2 dB eBfB | eBdB ABGB |
Bdef g2 af | gfed BAGA | B2 dB ABGA | BEED E2 GA |
Bdef g2 af | gfed BAGA | B2 dB gBfB | eBdB ABGA |
Bdef g2 ag | e2 dB A2 GA | B2 dB ABGA | BE (3FED E4 ||
